X: 1
T:Black Licorice
M:4/4
L:1/8
Q:120
C:Glenn Booth (glenn@fiddlebooth.com)
S:www.fiddlebooth.com
R:hornpipe
K:GMaj
|:(3DEF | "Em" GDBA BGDG| "D" FADA FA (3DEF | "Em" GDBA BGDG| "Am"Ec"D7"
AF "G"F<G
:|
|:(3GBd | "C"ecec "G"dBGB| "A"AGFE "D"D2 (3 FAd |  "C"ecec "G"(3 dcB (3A
GF | "A"(E^C
"D7"FD "G"D/2G> :|
